X: 4
T: Clorinda False
T:Bass
C: Thomas Morley
%#Noindex
L: 1/4
M: C
%%measurenb 0
%%squarebreve
%%scale 1.0
K: F clef=bass
 z4 | z4 |: z4 | z4 | z4 |z2 D,2 | 
w:Clo-
G,3/ A,/ B, G, | F,3/ E,/ D, D, | E,/F,/ G,2 ^F, | G, G, D, B,, | 
w:rin-da false, a-dieu thy love tor-ments___ me; Let Thyr-sis
_E,3/ D,/ C, C, | D, D, D,2 | [1 G,,4- | G,,4 :|[2  G,,4- |
w:have thy heart, since he con-tents thee._ thee.
G,,4 | z4 | z4 |z2 D,2 | G,3 G, | 
w:_ O grief and
F,2 D,2 | _E,4 | D,2 G,2 | C,3/ D,/ _E, F, | G,2 B,2 | 
w:bit-ter an-guish;  for thee un-kind I lan-guish.
_E,4 | F,4- | F,4 | B,,2 B, B,/A,/ | G, G, B,2 | 
w: I lan -guish. Fain I a-las would hide 
B,,4 | F, F,/G,/ A, F, | B,2 B,2 | _E, E,/F,/ G, A, | B, B,, D, D,/_E,/ | 
w:it, fain I a-las would hide it, fain I a-las would hide it. O but who
F, G, F,2 | B,, B,, B,,/C,/D,/E,/ | F,2 C,2 | D,4 | G,,3 G, | 
w:can a-bide it? I can, I can-not I a-bide it. A-
C/=B,/C/B,/ C G, |z2 z G, | C/=B,/C/B,/ C G, | z4 | 
w:dieu, a-dieu, a-dieu then, a-dieu, a-dieu, a-dieu then,
G,4 | D,4 |z G,3/ G,/ G, | C, =B,, C,2 | G,2 G,2 | 
w:fare-well leave me, death now de-sir-ing, thou
D,3/ E,/ F,3/ G,/ | A, B, A,2 | D,4 | z4 |z2 z G, | 
w:hast, lo, thy re-quir --ing. Thus
F,3/ D,/ _E,3/ C,/ | D, B,, C, _E, | D,4 | D,2 D,2 | 
w:spake Phil-is-tus, on his hook re-ly-ing, and
D,4 | D,4 | D,4 | G,,4 | z4 |
w:fell a-dy-ing.
z2 z C | B,3/ G,/ A,3/ ^F,/ | G, D, _E, E, | D,2 D,2 | z4 |
w:Thus spake Phil-is-tus, on his hook re-ly-ing,
z2 z G, | F,3/ D,/ _E,3/ C,/ | D, B,, C, _E, | D,4 | 
w:thus spake Phil-is-tus, on his hook re-ly-
D,2 D,2 | D,4 | D,4 | D,4 | G,,4|]
w:ing, and fell a-dy-ing. 


